src/icons/icons_set_04/057-walk.svg

<svg height="50" viewBox="0 0 50 50" width="50" xmlns="http://www.w3.org/2000/svg"><path d="m12.9504719 18.6645207-.3866747 4.6159293 8.608887 12.9882548c.7628143 1.1508604.4482409 2.7022002-.7026195 3.4650146-1.1508604.7628143-2.7022002.4482408-3.4650145-.7026195l-9.08886723-13.7124024c-.31086882-.4690087-.45442815-1.0291747-.40745718-1.5898906l.71891634-8.5820638-2.72764213 1.3504502v4.4403067c0 1.3807119-1.11928813 2.5-2.5 2.5s-2.5-1.1192881-2.5-2.5v-5.9921875c0-.9504698.53897109-1.8187244 1.3907607-2.2404437l7.96875-3.94531254c1.1382508-.56354573 2.5181608-.18404361 3.2081586.88230607l3.9484201 6.10204357 5.9859318 2.9513211c1.2383732.6105711 1.7473073 2.1094366 1.1367362 3.3478098s-2.1094366 1.7473074-3.3478098 1.1367362l-6.604593-3.2563476c-.4048769-.1996217-.7481499-.5051433-.9933825-.8841354zm4.0495281-15.16470241c0 1.93271377-1.5673866 3.50018171-3.5 3.50018171-1.93225 0-3.5-1.56746794-3.5-3.50018171 0-1.93235035 1.56775-3.49981829 3.5-3.49981829 1.9326134 0 3.5 1.56746794 3.5 3.49981829zm-13.45849502 26.28604451c.67054945-1.2069501 2.19256361-1.6417889 3.39951379-.9712394 1.20695017.6705494 1.64178888 2.1925636.97123944 3.3995138l-3.17365894 5.7124023c-.67054945 1.2069502-2.19256361 1.6417889-3.39951378.9712395-1.20695018-.6705495-1.64178889-2.1925637-.97123944-3.3995138z" fill="#1d1d1b" fill-rule="evenodd" transform="translate(14 6)"/></svg>

<?xml version="1.0" encoding="UTF-8"?>
<svg width="50px" height="50px" viewBox="0 0 50 50" version="1.1" xmlns="http://www.w3.org/2000/svg" xmlns:xlink="http://www.w3.org/1999/xlink">
    <!-- Generator: Sketch 52.6 (67491) - http://www.bohemiancoding.com/sketch -->
    <title>057-walk</title>
    <desc>Created with Sketch.</desc>
    <g id="057-walk" stroke="none" stroke-width="1" fill="none" fill-rule="evenodd">
        <g id="Group-7" transform="translate(14.000000, 6.000000)" fill="#1D1D1B">
            <path d="M12.9504719,18.6645207 L12.5637972,23.28045 L21.1726842,36.2687048 C21.9354985,37.4195652 21.6209251,38.970905 20.4700647,39.7337194 C19.3192043,40.4965337 17.7678645,40.1819602 17.0050502,39.0310999 L7.91618297,25.3186975 C7.60531415,24.8496888 7.46175482,24.2895228 7.50872579,23.7288069 L8.22764213,15.1467431 L5.5,16.4971933 L5.5,20.9375 C5.5,22.3182119 4.38071187,23.4375 3,23.4375 C1.61928813,23.4375 0.5,22.3182119 0.5,20.9375 L0.5,14.9453125 C0.5,13.9948427 1.03897109,13.1265881 1.8907607,12.7048688 L9.8595107,8.75955626 C10.9977615,8.19601053 12.3776715,8.57551265 13.0676693,9.64186233 L17.0160894,15.7439059 L23.0020212,18.695227 C24.2403944,19.3057981 24.7493285,20.8046636 24.1387574,22.0430368 C23.5281863,23.28141 22.0293208,23.7903442 20.7909476,23.179773 L14.1863546,19.9234254 C13.7814777,19.7238037 13.4382047,19.4182821 13.1929721,19.03929 L12.9504719,18.6645207 Z M17,3.49981829 C17,5.43253206 15.4326134,7 13.5,7 C11.56775,7 10,5.43253206 10,3.49981829 C10,1.56746794 11.56775,0 13.5,0 C15.4326134,0 17,1.56746794 17,3.49981829 Z M3.54150498,29.7858628 C4.21205443,28.5789127 5.73406859,28.1440739 6.94101877,28.8146234 C8.14796894,29.4851728 8.58280765,31.007187 7.91225821,32.2141372 L4.73859927,37.9265395 C4.06804982,39.1334897 2.54603566,39.5683284 1.33908549,38.897779 C0.132135311,38.2272295 -0.302703398,36.7052153 0.367846045,35.4982652 L3.54150498,29.7858628 Z" id="Combined-Shape"></path>
        </g>
    </g>
</svg>
